apps/22/pdf-viewer.svg

<?xml version="1.0" encoding="UTF-8"?>
<svg id="d" width="22" height="22" version="1.1" xmlns="http://www.w3.org/2000/svg" xmlns:cc="http://creativecommons.org/ns#" xmlns:dc="http://purl.org/dc/elements/1.1/" xmlns:rdf="http://www.w3.org/1999/02/22-rdf-syntax-ns#">
	<metadata id="a">
		<rdf:RDF>
			<cc:Work rdf:about="">
				<dc:format>image/svg+xml</dc:format>
				<dc:type rdf:resource="http://purl.org/dc/dcmitype/StillImage"/>
				<dc:title/>
			</cc:Work>
		</rdf:RDF>
	</metadata>
	<defs id="c">
		<style id="current-color-scheme" type="text/css">.ColorScheme-Text {color:#090d11;}.ColorScheme-Background{color:#ffffff;}</style>
	</defs>
	<path id="b" class="ColorScheme-Background" d="m8.4062 1.375c-0.30471 6.875e-4 -0.60135 0.05175-0.875 0.1875-0.5857 0.2908-1.0513 0.78835-1.375 1.4062a1.2001 1.2001 0 0 0 -0.125 0.375c-0.4618 2.8337 0.8448 5.3418 2.125 7.1562 0.01 0.012 0.02325 0.01925 0.03125 0.03125 0.078 0.1184 0.1701 0.22655 0.25 0.34375-0.041 0.1264-0.04975 0.28255-0.09375 0.40625v0.03125c-0.1671 0.4125-0.39905 0.7877-0.59375 1.1875-0.1104 0.049-0.23405 0.075-0.34375 0.125-1.5024 0.672-3.1307 1.4648-4.5625 2.7188-0.029 0.026-0.06475 0.0375-0.09375 0.0625l0.03125 0.03125c-0.4851 0.379-1.0972 1.0019-1.2812 2a1.2001 1.2001 0 0 0 -0.03125 0.125c-0.05 0.6164 0.17065 1.268 0.59375 1.7188a1.2001 1.2001 0 0 0 0.0625 0.0625c0.2352 0.2201 0.4972 0.2559 0.75 0.375a1.2001 1.2001 0 0 0 0 0.03125 1.2001 1.2001 0 0 0 0.21875 0.125 1.2001 1.2001 0 0 0 0.3125 0.15625h0.03125a1.2001 1.2001 0 0 0 0.59375 -0.03125c1.2147 0.083 2.3398-0.2993 3.125-0.9375 0.01-0.01 0.02125-0.02325 0.03125-0.03125 1.1233-0.8893 1.9179-1.9786 2.5625-3.0312 0.1665-0.2691 0.2825-0.56805 0.4375-0.84375 0.1878-0.074 0.3739-0.14865 0.5625-0.21875 0.3548-0.1131 0.7553-0.18065 1.125-0.28125 0.5327 0.47 1.002 0.99685 1.5938 1.4062 0.018 0.014 0.0445 0.01825 0.0625 0.03125 1.6834 1.2506 4.1438 1.8163 6.3438 0.6875 1.1214-0.5672 1.782-1.8381 1.6562-3.1875a1.2001 1.2001 0 0 0 -0.03125 -0.25c-0.4493-1.4323-1.5128-2.2586-2.4062-2.6562v-0.03125c-0.021-0.011-0.0415 0.011-0.0625 0-0.013-0.01-0.01925-0.02525-0.03125-0.03125-0.9602-0.4696-1.9256-0.5878-2.7188-0.5625-0.01 3e-4 -0.02325-3e-4 -0.03125 0-0.9444 0.016-1.7974 0.1931-2.5938 0.375-0.01-0.01-0.02625 0.01-0.03125 0v-0.03125a1.2001 1.2001 0 0 0 -0.03125 -0.03125c-0.015-0.016-0.01725-0.0455-0.03125-0.0625a1.2001 1.2001 0 0 0 -0.03125 0c-0.335-0.3676-0.625-0.7879-0.9375-1.1875 0.1396-0.5113 0.36365-0.93035 0.46875-1.4688a1.2001 1.2001 0 0 0 0.03125 -0.0625c0.2897-1.8911-0.5516-3.6526-1.8125-4.8438-0.017-0.018-0.0455-0.0445-0.0625-0.0625-0.4257-0.4337-1.019-0.87015-1.7812-1.1562-0.04-0.015-0.05175-0.0485-0.09375-0.0625l-0.03125 0.0625c-0.2887-0.1075-0.60154-0.15694-0.90625-0.15625zm0.125 1.1562c0.1517-0.00489 0.29695 0.03085 0.4375 0.09375 0.6423 0.2212 1.118 0.5698 1.4688 0.9375 1.0368 0.9523 1.6914 2.3908 1.4688 3.8438-0.14492 0.74166-0.31954 1.4694-0.53125 2.1562 0.4069 0.54064 0.83208 1.0696 1.2812 1.5625 0.2047 0.22467 0.44103 0.41023 0.65625 0.625 0.1174-0.03061 0.2247-0.06488 0.34375-0.09375 0.8277-0.2023 1.7096-0.362 2.6562-0.375 0.6883-0.0246 1.475 0.06845 2.25 0.46875 0.6631 0.2757 1.4352 0.86565 1.7812 1.9688 0.0863 0.926-0.3339 1.6631-1 2-1.7364 0.891-3.7605 0.44255-5.125-0.59375-0.77799-0.53378-1.5142-1.1355-2.1875-1.7812-0.56329 0.14101-1.1288 0.26933-1.6562 0.4375-0.32402 0.11978-0.64847 0.24376-0.96875 0.375-0.21453 0.40179-0.4165 0.83157-0.65625 1.2188-0.613 1.0012-1.3354 1.9854-2.3125 2.75-0.7019 0.5797-1.6898 0.95925-2.7188 0.71875-0.2259-0.0485-0.4976-0.1389-0.75-0.375-0.2003-0.2134-0.30525-0.5185-0.28125-0.8125 0.1239-0.6721 0.5286-1.0874 0.875-1.3438 1.2926-1.156 2.838-1.9202 4.3438-2.5938 0.26725-0.12096 0.54168-0.22937 0.8125-0.34375 0.27592-0.54092 0.52267-1.0928 0.75-1.6562 0.11295-0.32166 0.21204-0.66217 0.3125-1-0.21151-0.29094-0.4289-0.57459-0.625-0.875-1.1992-1.6949-2.3226-3.9496-1.9375-6.3125 0.35122-0.67035 0.8574-0.98533 1.3125-1zm0.375 1.9375c0.027355 1.1663 0.73147 2.3901 1.5 3.625 0.04766-0.29065 0.08916-0.57778 0.125-0.875 0.1396-0.8244-0.47335-1.7674-1.2188-2.4688-0.14606-0.11615-0.27657-0.19374-0.40625-0.28125zm1.6562 7.25c-0.05364 0.12408-0.10103 0.25377-0.15625 0.375-0.10044 0.2488-0.23416 0.47385-0.34375 0.71875 0.3406-0.14259 0.73335-0.24201 1.0938-0.375-0.20844-0.229-0.39608-0.47955-0.59375-0.71875zm5.7188 1.0312c-0.58762-0.03619-1.1853 0.04986-1.7812 0.125 0.27088 0.22355 0.55879 0.42059 0.84375 0.625 1.0362 0.6462 2.3355 1.1728 3.125 0.65625 0.0981-0.0891 0.2685-0.2 0.1875-0.125 0.0837-0.2343-0.41375-0.51185-0.90625-0.90625-0.35-0.2521-0.89005-0.325-1.4688-0.375zm-8.375 2.0938c-1.3362 0.61988-2.6211 1.2772-3.6562 2.2188-0.2771 0.303-0.5681 0.51109-0.5625 0.6875 0.0229 0.0486 0.12585 0.09825 0.28125 0.15625 0.5497 0.1996 1.2498-0.1387 1.8438-0.5625 0.837-0.6399 1.4992-1.5503 2.0938-2.5z" style="fill-opacity:.5;fill:currentColor"/>
	<path id="e" class="ColorScheme-Text" d="m12.7 11.1c-0.6724-0.7379-1.2971-1.5345-1.8733-2.3715h-1e-4c-1.0642-1.6856-2.1497-3.3463-1.8414-4.8999-0.3764 0.3761-0.4104 0.5167-0.4718 0.4108 0.2448 0.038 0.5232 0.2571 0.8404 0.5094 0.7543 0.7098 1.3498 1.6152 1.2095 2.4434-0.1956 1.6223-0.5708 3.1392-1.0538 4.5145-0.4372 1.0836-0.9659 2.13-1.5798 3.1221-0.5945 0.9497-1.2472 1.8491-2.0842 2.489-0.594 0.4238-1.2868 0.764-1.8365 0.5644l-0.1343 0.4816-0.1343 0.4816c1.029 0.2405 2.0154-0.1572 2.7173-0.7369 0.9771-0.7646 1.7093-1.7522 2.3223-2.7534 0.6446-1.041 1.1992-2.138 1.6577-3.2738 0.633-1.3897 1.1635-2.9569 1.4984-4.6707 0.2234-1.458-0.4285-2.8939-1.475-3.8551-0.3501-0.367-0.8279-0.7333-1.4696-0.9543-0.5618-0.2514-1.2589 0.029-1.7273 0.9228-0.3887 2.385 0.7179 4.5882 1.9283 6.299 0.6051 0.927 1.2815 1.8097 2.0287 2.6269 0.8998 0.9841 1.9108 1.8824 3.0308 2.6509 1.3719 1.0419 3.3859 1.5005 5.1295 0.6058 0.667-0.3373 1.0928-1.086 1.0065-2.0123-0.3457-1.1019-1.1348-1.6936-1.7948-1.968-0.7735-0.3996-1.5655-0.4907-2.2514-0.4662-0.9433 0.013-1.8395 0.1725-2.6636 0.374-1.2999 0.3152-2.5088 0.74-3.6055 1.2009-0.72 0.2659-1.4284 0.5601-2.1246 0.8752-1.5057 0.6735-3.0519 1.4326-4.3445 2.5886-0.3464 0.2564-0.7593 0.6864-0.8832 1.3585-0.024 0.294 0.073 0.5714 0.2733 0.7848 0.2524 0.2361 0.5208 0.3548 0.7467 0.4033l0.1343-0.4816 0.1343-0.4816c-0.1554-0.058-0.2739-0.087-0.2968-0.1356v0.011c-0.038-0.1819 0.2666-0.3977 0.5577-0.716 1.1435-1.0401 2.6038-1.743 4.0868-2.4201 0.6778-0.3058 1.3645-0.5909 2.0597-0.8479 1.0942-0.3489 2.2789-0.6565 3.5186-0.8555 0.7864-0.1246 1.5946-0.2117 2.3734-0.1638 0.5764 0.05 1.1213 0.1212 1.4696 0.3721 0.4909 0.3932 0.9895 0.6696 0.9066 0.9015 0.085-0.079-0.086 0.023-0.1811 0.1091-0.7894 0.5166-2.0929 0.014-3.1343-0.6352-0.974-0.6987-1.8628-1.5132-2.6724-2.4018z" style="fill-opacity:.75;fill:currentColor"/>
</svg>

<?xml version="1.0" encoding="UTF-8" standalone="no"?>
<!-- Created with Inkscape (http://www.inkscape.org/) -->

<svg
   xmlns:dc="http://purl.org/dc/elements/1.1/"
   xmlns:cc="http://creativecommons.org/ns#"
   xmlns:rdf="http://www.w3.org/1999/02/22-rdf-syntax-ns#"
   xmlns:svg="http://www.w3.org/2000/svg"
   xmlns="http://www.w3.org/2000/svg"
   xmlns:sodipodi="http://sodipodi.sourceforge.net/DTD/sodipodi-0.dtd"
   xmlns:inkscape="http://www.inkscape.org/namespaces/inkscape"
   width="22"
   height="22"
   id="svg27665"
   version="1.1"
   inkscape:version="0.48.3.1 r9886"
   sodipodi:docname="pdf-viewer.svg">
  <defs
     id="defs27667">
    <inkscape:path-effect
       effect="skeletal"
       id="path-effect3787"
       is_visible="true"
       pattern="m -3358.6671,2097.7186 c -0.5893,10e-5 -1.2098,0.25 -1.6875,0.5 l -0.8125,0 0,0.5 0,0.5 0.8125,0 c 0.4777,0.25 1.0983,0.5 1.6875,0.5 0.5893,0 1.2098,-0.25 1.6875,-0.5 l 0.8125,0 0,-0.5 0,-0.5 -0.8125,0 c -0.4777,-0.25 -1.0983,-0.4999 -1.6875,-0.5 z"
       copytype="single_stretched"
       prop_scale="1"
       scale_y_rel="false"
       spacing="0"
       normal_offset="0"
       tang_offset="0"
       prop_units="false"
       vertical_pattern="false"
       fuse_tolerance="0" />
    <inkscape:path-effect
       fuse_tolerance="0"
       vertical_pattern="false"
       prop_units="false"
       tang_offset="0"
       normal_offset="0"
       spacing="0"
       scale_y_rel="false"
       prop_scale="1"
       copytype="single_stretched"
       pattern="m -3358.6671,2097.7186 c -0.5893,10e-5 -1.2098,0.25 -1.6875,0.5 l -0.8125,0 0,0.5 0,0.5 0.8125,0 c 0.4777,0.25 1.0983,0.5 1.6875,0.5 0.5893,0 1.2098,-0.25 1.6875,-0.5 l 0.8125,0 0,-0.5 0,-0.5 -0.8125,0 c -0.4777,-0.25 -1.0983,-0.4999 -1.6875,-0.5 z"
       is_visible="true"
       id="path-effect3005"
       effect="skeletal" />
    <inkscape:path-effect
       fuse_tolerance="0"
       vertical_pattern="false"
       prop_units="false"
       tang_offset="0"
       normal_offset="0"
       spacing="0"
       scale_y_rel="false"
       prop_scale="1"
       copytype="single_stretched"
       pattern="m -3358.6671,2097.7186 c -0.5893,10e-5 -1.2098,0.25 -1.6875,0.5 l -0.8125,0 0,0.5 0,0.5 0.8125,0 c 0.4777,0.25 1.0983,0.5 1.6875,0.5 0.5893,0 1.2098,-0.25 1.6875,-0.5 l 0.8125,0 0,-0.5 0,-0.5 -0.8125,0 c -0.4777,-0.25 -1.0983,-0.4999 -1.6875,-0.5 z"
       is_visible="true"
       id="path-effect3001"
       effect="skeletal" />
    <inkscape:path-effect
       effect="skeletal"
       id="path-effect3037"
       is_visible="true"
       pattern="m -3358.6671,2097.7186 c -0.5893,10e-5 -1.2098,0.25 -1.6875,0.5 l -0.8125,0 0,0.5 0,0.5 0.8125,0 c 0.4777,0.25 1.0983,0.5 1.6875,0.5 0.5893,0 1.2098,-0.25 1.6875,-0.5 l 0.8125,0 0,-0.5 0,-0.5 -0.8125,0 c -0.4777,-0.25 -1.0983,-0.4999 -1.6875,-0.5 z"
       copytype="single_stretched"
       prop_scale="1"
       scale_y_rel="false"
       spacing="0"
       normal_offset="0"
       tang_offset="0"
       prop_units="false"
       vertical_pattern="false"
       fuse_tolerance="0" />
  </defs>
  <sodipodi:namedview
     id="base"
     pagecolor="#ffffff"
     bordercolor="#666666"
     borderopacity="1.0"
     inkscape:pageopacity="0.0"
     inkscape:pageshadow="2"
     inkscape:zoom="32"
     inkscape:cx="6.0032048"
     inkscape:cy="12.775262"
     inkscape:document-units="px"
     inkscape:current-layer="layer1"
     showgrid="true"
     inkscape:window-width="1920"
     inkscape:window-height="1033"
     inkscape:window-x="-10"
     inkscape:window-y="25"
     inkscape:window-maximized="1"
     inkscape:snap-bbox="true"
     inkscape:bbox-paths="true"
     inkscape:bbox-nodes="true"
     inkscape:snap-bbox-edge-midpoints="true"
     inkscape:snap-bbox-midpoints="true"
     inkscape:object-paths="true"
     inkscape:snap-intersection-paths="true"
     inkscape:object-nodes="true"
     inkscape:snap-smooth-nodes="true"
     inkscape:snap-midpoints="true"
     inkscape:snap-object-midpoints="true"
     inkscape:snap-center="true"
     inkscape:snap-global="false"
     showguides="false"
     inkscape:guide-bbox="true"
     fit-margin-top="0"
     fit-margin-left="0"
     fit-margin-right="0"
     fit-margin-bottom="0"
     inkscape:showpageshadow="false">
    <sodipodi:guide
       orientation="0,1"
       position="599.99999,299.99993"
       id="guide3572" />
    <sodipodi:guide
       orientation="1,0"
       position="294.41949,12.121716"
       id="guide3574" />
    <sodipodi:guide
       orientation="0,1"
       position="456.04389,599.99992"
       id="guide3576" />
    <sodipodi:guide
       orientation="0,1"
       position="-2.8882813e-06,-8.4406273e-05"
       id="guide3578" />
    <sodipodi:guide
       orientation="1,0"
       position="-2.8882813e-06,157.58366"
       id="guide3580" />
    <sodipodi:guide
       orientation="1,0"
       position="599.99999,121.21821"
       id="guide3582" />
    <sodipodi:guide
       orientation="0,1"
       position="599.99999,-714.34359"
       id="guide5928" />
    <sodipodi:guide
       orientation="0,1"
       position="599.99999,-414.34359"
       id="guide5930" />
    <sodipodi:guide
       orientation="0,1"
       position="599.99999,-1014.3435"
       id="guide5932" />
    <sodipodi:guide
       orientation="0,1"
       position="451.57029,524.99606"
       id="guide5294" />
    <sodipodi:guide
       orientation="0,1"
       position="451.57029,75.013516"
       id="guide5296" />
    <sodipodi:guide
       orientation="0,1"
       position="496.01499,-931.36409"
       id="guide5413" />
    <sodipodi:guide
       orientation="0,1"
       position="457.34859,-489.34389"
       id="guide5415" />
    <inkscape:grid
       type="xygrid"
       id="grid3070"
       empspacing="5"
       visible="true"
       enabled="true"
       snapvisiblegridlinesonly="true"
       originx="4.3243213e-05px"
       originy="-2.6947047e-05px" />
  </sodipodi:namedview>
  <metadata
     id="metadata27670">
    <rdf:RDF>
      <cc:Work
         rdf:about="">
        <dc:format>image/svg+xml</dc:format>
        <dc:type
           rdf:resource="http://purl.org/dc/dcmitype/StillImage" />
        <dc:title />
      </cc:Work>
    </rdf:RDF>
  </metadata>
  <g
     inkscape:label="Camada 1"
     inkscape:groupmode="layer"
     id="layer1"
     transform="translate(3364.4171,-2094.7186)">
    <path
       style="color:#000000;fill:#27303a;fill-opacity:0.753280819999999968;fill-rule:nonzero;stroke:none;stroke-width:1;marker:none;visibility:visible;display:inline;overflow:visible;enable-background:accumulate"
       d="m -3351.7481,2105.8298 c -0.6717,-0.7371 -1.2978,-1.5355 -1.8733,-2.3715 -1e-4,0 -1e-4,0 -1e-4,0 -1.054,-1.6694 -2.1477,-3.3564 -1.8414,-4.8999 -0.3767,0.3764 -0.4107,0.5162 -0.4718,0.4108 0.2457,0.038 0.5225,0.2566 0.8404,0.5094 0.7454,0.7014 1.3491,1.619 1.2095,2.4434 -0.195,1.6172 -0.5722,3.143 -1.0538,4.5145 -0.4372,1.0836 -0.9659,2.13 -1.5798,3.1221 -0.5945,0.9497 -1.2472,1.8491 -2.0842,2.489 0,0 0,0 0,0 -0.594,0.4238 -1.2868,0.764 -1.8365,0.5644 l -0.1343,0.4816 -0.1343,0.4816 c 1.029,0.2405 2.0154,-0.1572 2.7173,-0.7369 0,0 0,0 0,0 0.9771,-0.7646 1.7093,-1.7522 2.3223,-2.7534 0,0 0,0 0,0 0.6446,-1.041 1.1992,-2.138 1.6577,-3.2738 0.6315,-1.3865 1.1645,-2.9619 1.4984,-4.6707 0.2226,-1.4529 -0.4382,-2.9028 -1.475,-3.8551 -0.3507,-0.3677 -0.8273,-0.7331 -1.4696,-0.9543 -0.5622,-0.2516 -1.259,0.029 -1.7273,0.9228 -0.3851,2.3629 0.7291,4.6041 1.9283,6.299 0,0 0,0 0,0 0.6042,0.9256 1.2826,1.811 2.0287,2.6269 0.8984,0.9826 1.9126,1.8837 3.0308,2.6509 1.3645,1.0363 3.3931,1.4968 5.1295,0.6058 0,0 0,0 0,0 0.6661,-0.3369 1.0928,-1.0863 1.0065,-2.0123 -0.346,-1.1031 -1.1317,-1.6923 -1.7948,-1.968 0,0 0,0 0,0 -0.775,-0.4003 -1.5631,-0.4908 -2.2514,-0.4662 -0.9467,0.013 -1.8359,0.1717 -2.6636,0.374 -1.3023,0.3158 -2.5062,0.7389 -3.6055,1.2009 -0.72,0.2659 -1.4284,0.5601 -2.1246,0.8752 0,0 0,0 0,0 -1.5057,0.6735 -3.0519,1.4326 -4.3445,2.5886 0,0 0,0 0,0 -0.3464,0.2564 -0.7593,0.6864 -0.8832,1.3585 -0.024,0.294 0.073,0.5714 0.2733,0.7848 0.2524,0.2361 0.5208,0.3548 0.7467,0.4033 l 0.1343,-0.4816 0.1343,-0.4816 c -0.1554,-0.058 -0.2739,-0.087 -0.2968,-0.1356 0,0.01 -0,-0 0,0.011 -0.038,-0.1819 0.2666,-0.3977 0.5577,-0.716 0,0 0,0 0,0 1.1435,-1.0401 2.6038,-1.743 4.0868,-2.4201 0,0 0,0 0,0 0.6778,-0.3058 1.3645,-0.5909 2.0597,-0.8479 1.097,-0.3498 2.2762,-0.656 3.5186,-0.8555 0.7903,-0.1252 1.5908,-0.212 2.3734,-0.1638 0.5787,0.05 1.1196,0.12 1.4696,0.3721 0,0 0,0 0,0 0.4925,0.3944 0.9903,0.6672 0.9066,0.9015 0.081,-0.075 -0.083,0.02 -0.1811,0.1091 0,0 0,0 0,0 -0.7895,0.5166 -2.0981,0.011 -3.1343,-0.6352 -0.9729,-0.6979 -1.8637,-1.5142 -2.6724,-2.4018 z"
       id="path3785"
       inkscape:connector-curvature="0"
       inkscape:path-effect="#path-effect3787"
       inkscape:original-d="m -3360.5734,2113.0936 c 2.9415,0.82 6.5473,-5.8574 7.375,-11.0624 0.3853,-2.4226 -2.9229,-4.767 -3.125,-3.6251 -0.5497,3.1059 3.3469,8.2843 6.6875,10.625 3.0999,2.172 6.7934,0.1075 3.375,-1.8749 -3.7826,-2.1938 -18.2017,4.8532 -14.3125,5.9374 z"
       sodipodi:nodetypes="ssssss" />
    <path
       style="font-size:medium;font-style:normal;font-variant:normal;font-weight:normal;font-stretch:normal;text-indent:0;text-align:start;text-decoration:none;line-height:normal;letter-spacing:normal;word-spacing:normal;text-transform:none;direction:ltr;block-progression:tb;writing-mode:lr-tb;text-anchor:start;baseline-shift:baseline;color:#000000;fill:#f1f3f5;fill-opacity:0.90288714000000003;fill-rule:nonzero;stroke:none;stroke-width:2;marker:none;visibility:visible;display:inline;overflow:visible;enable-background:accumulate;font-family:Sans;-inkscape-font-specification:Sans"
       d="M 8.40625 1.375 C 8.1015375 1.3756875 7.8049 1.42675 7.53125 1.5625 C 6.94555 1.8533 6.47995 2.35085 6.15625 2.96875 A 1.20012 1.20012 0 0 0 6.03125 3.34375 C 5.56945 6.17745 6.87605 8.6855 8.15625 10.5 C 8.16625 10.512 8.1795 10.51925 8.1875 10.53125 C 8.2655 10.64965 8.3576 10.7578 8.4375 10.875 C 8.3965 11.0014 8.38775 11.15755 8.34375 11.28125 L 8.34375 11.3125 C 8.17665 11.725 7.9447 12.1002 7.75 12.5 C 7.6396 12.549 7.51595 12.575 7.40625 12.625 C 5.90385 13.297 4.27555 14.08985 2.84375 15.34375 C 2.81475 15.36975 2.779 15.38125 2.75 15.40625 L 2.78125 15.4375 C 2.29615 15.8165 1.684 16.4394 1.5 17.4375 A 1.20012 1.20012 0 0 0 1.46875 17.5625 C 1.41875 18.1789 1.6394 18.83045 2.0625 19.28125 A 1.20012 1.20012 0 0 0 2.125 19.34375 C 2.3602 19.56385 2.6222 19.59965 2.875 19.71875 A 1.20012 1.20012 0 0 0 2.875 19.75 A 1.20012 1.20012 0 0 0 3.09375 19.875 A 1.20012 1.20012 0 0 0 3.40625 20.03125 L 3.4375 20.03125 A 1.20012 1.20012 0 0 0 4.03125 20 C 5.24595 20.083 6.37105 19.7007 7.15625 19.0625 C 7.16625 19.0525 7.1775 19.03925 7.1875 19.03125 C 8.3108 18.14195 9.1054 17.0527 9.75 16 C 9.9165 15.7309 10.0325 15.43195 10.1875 15.15625 C 10.3753 15.08225 10.5614 15.0076 10.75 14.9375 C 11.1048 14.8244 11.5053 14.75685 11.875 14.65625 C 12.4077 15.12625 12.87695 15.6531 13.46875 16.0625 C 13.48675 16.0765 13.51325 16.08075 13.53125 16.09375 C 15.21465 17.34435 17.6751 17.91005 19.875 16.78125 C 20.9964 16.21405 21.65705 14.94315 21.53125 13.59375 A 1.20012 1.20012 0 0 0 21.5 13.34375 C 21.0507 11.91145 19.98715 11.0851 19.09375 10.6875 L 19.09375 10.65625 C 19.07275 10.64525 19.05225 10.66725 19.03125 10.65625 C 19.01825 10.64625 19.012 10.631 19 10.625 C 18.0398 10.1554 17.07435 10.0372 16.28125 10.0625 C 16.27125 10.0628 16.258 10.0622 16.25 10.0625 C 15.3056 10.0785 14.45265 10.2556 13.65625 10.4375 C 13.64625 10.4275 13.63 10.4475 13.625 10.4375 L 13.625 10.40625 A 1.20012 1.20012 0 0 0 13.59375 10.375 C 13.57875 10.359 13.5765 10.3295 13.5625 10.3125 A 1.20012 1.20012 0 0 0 13.53125 10.3125 C 13.19625 9.9449 12.90625 9.5246 12.59375 9.125 C 12.73335 8.6137 12.9574 8.19465 13.0625 7.65625 A 1.20012 1.20012 0 0 0 13.09375 7.59375 C 13.38345 5.70265 12.54215 3.9411 11.28125 2.75 C 11.26425 2.732 11.23575 2.7055 11.21875 2.6875 C 10.79305 2.2538 10.1997 1.81735 9.4375 1.53125 C 9.3975 1.51625 9.38575 1.48275 9.34375 1.46875 L 9.3125 1.53125 C 9.0238 1.42375 8.7109625 1.3743125 8.40625 1.375 z M 8.53125 2.53125 C 8.6829516 2.5263594 8.8282 2.5621 8.96875 2.625 C 9.61105 2.8462 10.0868 3.1948 10.4375 3.5625 C 11.4743 4.5148 12.12885 5.95335 11.90625 7.40625 C 11.761329 8.1479129 11.586708 8.8756342 11.375 9.5625 C 11.781897 10.103145 12.207076 10.632092 12.65625 11.125 C 12.860951 11.349673 13.097278 11.535228 13.3125 11.75 C 13.429896 11.719391 13.537205 11.685118 13.65625 11.65625 C 14.48395 11.45395 15.3658 11.29425 16.3125 11.28125 C 17.0008 11.25665 17.7875 11.3497 18.5625 11.75 C 19.2256 12.0257 19.99775 12.61565 20.34375 13.71875 C 20.43005 14.64475 20.00985 15.38185 19.34375 15.71875 C 17.60735 16.60975 15.58325 16.1613 14.21875 15.125 C 13.440757 14.591217 12.704581 13.98952 12.03125 13.34375 C 11.467958 13.484756 10.902404 13.613077 10.375 13.78125 C 10.050983 13.901032 9.7265332 14.025009 9.40625 14.15625 C 9.1917163 14.55804 8.9897476 14.987818 8.75 15.375 C 8.137 16.3762 7.4146 17.3604 6.4375 18.125 C 5.7356 18.7047 4.74775 19.08425 3.71875 18.84375 C 3.49285 18.79525 3.22115 18.70485 2.96875 18.46875 C 2.76845 18.25535 2.6635 17.95025 2.6875 17.65625 C 2.8114 16.98415 3.2161 16.5689 3.5625 16.3125 C 4.8551 15.1565 6.40055 14.39225 7.90625 13.71875 C 8.1735043 13.597791 8.4479341 13.489381 8.71875 13.375 C 8.9946715 12.834082 9.24142 12.282187 9.46875 11.71875 C 9.5817016 11.397087 9.6807874 11.056577 9.78125 10.71875 C 9.5697441 10.427812 9.3523462 10.144158 9.15625 9.84375 C 7.95705 8.14885 6.83365 5.89415 7.21875 3.53125 C 7.569975 2.8609 8.0761453 2.5459219 8.53125 2.53125 z M 8.90625 4.46875 C 8.9336047 5.6350676 9.6377152 6.858863 10.40625 8.09375 C 10.453913 7.8030997 10.495412 7.5159651 10.53125 7.21875 C 10.67085 6.39435 10.0579 5.4514 9.3125 4.75 C 9.1664378 4.6338486 9.0359294 4.5562621 8.90625 4.46875 z M 10.5625 11.71875 C 10.508857 11.842832 10.461466 11.972519 10.40625 12.09375 C 10.305813 12.342552 10.172095 12.567602 10.0625 12.8125 C 10.403097 12.669912 10.795849 12.570487 11.15625 12.4375 C 10.947807 12.208495 10.760168 11.957953 10.5625 11.71875 z M 16.28125 12.75 C 15.693634 12.713809 15.095904 12.799863 14.5 12.875 C 14.770875 13.098546 15.058788 13.295586 15.34375 13.5 C 16.37995 14.1462 17.67925 14.67285 18.46875 14.15625 C 18.56685 14.06715 18.73725 13.95625 18.65625 14.03125 C 18.73995 13.79695 18.2425 13.5194 17.75 13.125 C 17.4 12.8729 16.85995 12.8 16.28125 12.75 z M 7.90625 14.84375 C 6.5700987 15.463633 5.2851167 16.120983 4.25 17.0625 C 3.9728952 17.365497 3.681902 17.573591 3.6875 17.75 C 3.7104 17.7986 3.81335 17.84825 3.96875 17.90625 C 4.51845 18.10585 5.2185 17.76755 5.8125 17.34375 C 6.6495 16.70385 7.31175 15.79345 7.90625 14.84375 z "
       transform="translate(-3364.4171,2094.7186)"
       id="path2999" />
  </g>
</svg>
